X:17
T:Langley Hall Explosion
R:reel
C: 1977, 2010 L.E. McCullough
M:4/4
L:1/8
K:Ador
|:~A3B AGEG|DGBG AGED|~A3B GABd|edBG ~A3d|
~e3d BAGE|~G3B AGED|d~e3 dBAG|1 B~G3 ~A3G:|2 B~G3 ~A3d|]
|:~e3d BAGE|G~A3 AGED|(3efg ed BAGE|DGBG ~A3d|
~e3d  e~g3|d~B3 AGED|d~e3 dBAG|1B~G3 ~A3d:|2B~G3 ~A3G|]
<end>
<start>
